X:83
T:Constant Johnny - Luxton
C:Taken down from Roger Luxton, by H.Fl.S. 1889.
%%VWML:SBG-1-1-386-0
F:http://www.vwml.org/record/SBG/1/1/386
Z:Original Sibleius Transcription by Martin and Shan Graebe
L:1/8
M:4/4
I:linebreak $
K:A
A2 E2 Ac ec | dc BA f2 e2 | A2 E2 Ac ec | dc BA B4 |$ ce d B e c A2 | AG F G A B B2 | 
Ae d c c e f d | c A B G A4 |]$"^Bar 2nd. actually sung" d c BA fd ee |] 



